icons/question-16.svg

<svg xmlns="http://www.w3.org/2000/svg" width="16" height="16" viewBox="0 0 16 16"><path d="M0 8a8 8 0 1116 0A8 8 0 010 8zm8-6.5a6.5 6.5 0 100 13 6.5 6.5 0 000-13zM6.92 6.085h.001a.749.749 0 11-1.342-.67c.169-.339.436-.701.849-.977C6.845 4.16 7.369 4 8 4a2.756 2.756 0 011.637.525c.503.377.863.965.863 1.725 0 .448-.115.83-.329 1.15-.205.307-.47.513-.692.662-.109.072-.22.138-.313.195l-.006.004a6.24 6.24 0 00-.26.16.952.952 0 00-.276.245.75.75 0 01-1.248-.832c.184-.264.42-.489.692-.661.103-.067.207-.132.313-.195l.007-.004c.1-.061.182-.11.258-.161a.969.969 0 00.277-.245C8.96 6.514 9 6.427 9 6.25a.612.612 0 00-.262-.525A1.27 1.27 0 008 5.5c-.369 0-.595.09-.74.187a1.01 1.01 0 00-.34.398zM9 11a1 1 0 11-2 0 1 1 0 012 0z"/></svg>

<svg xmlns="http://www.w3.org/2000/svg" width="16" height="16" viewBox="0 0 16 16">
  <defs/>
  <path d="M0,8 C0,3.582 3.582,0 8,0 C12.418,0 16,3.582 16,8 C16,12.418 12.418,16 8,16 C3.582,16 0,12.418 0,8 Z M8,1.5 C4.41,1.5 1.5,4.41 1.5,8 C1.5,11.59 4.41,14.5 8,14.5 C11.59,14.5 14.5,11.59 14.5,8 C14.5,4.41 11.59,1.5 8,1.5 Z M6.92,6.085 L6.921,6.085 C6.803,6.327 6.564,6.487 6.295,6.504 C6.026,6.521 5.769,6.392 5.621,6.167 C5.473,5.942 5.457,5.655 5.579,5.415 C5.748,5.076 6.015,4.714 6.428,4.438 C6.845,4.16 7.369,4 8,4 C8.588,3.996 9.161,4.18 9.637,4.525 C10.14,4.902 10.5,5.49 10.5,6.25 C10.5,6.698 10.385,7.08 10.171,7.4 C9.966,7.707 9.701,7.913 9.479,8.062 C9.37,8.134 9.259,8.2 9.166,8.257 L9.16,8.261 C9.072,8.312 8.985,8.366 8.9,8.421 C8.793,8.484 8.699,8.567 8.624,8.666 C8.392,9.005 7.931,9.095 7.589,8.867 C7.247,8.639 7.152,8.178 7.376,7.834 C7.56,7.57 7.796,7.345 8.068,7.173 C8.171,7.106 8.275,7.041 8.381,6.978 L8.388,6.974 C8.488,6.913 8.57,6.864 8.646,6.813 C8.753,6.75 8.847,6.667 8.923,6.568 C8.96,6.514 9,6.427 9,6.25 C9.008,6.042 8.909,5.844 8.738,5.725 C8.553,5.587 8.28,5.5 8,5.5 C7.631,5.5 7.405,5.59 7.26,5.687 C7.11,5.786 7.001,5.925 6.92,6.085 Z M9,11 C9,11.552 8.552,12 8,12 C7.448,12 7,11.552 7,11 C7,10.448 7.448,10 8,10 C8.552,10 9,10.448 9,11 Z"/>
</svg>
